communes/5102.svg

<?xml version="1.0" encoding="UTF-8"?>
<svg version="1.0" viewBox="0 0 603 763" xmlns="http://www.w3.org/2000/svg" xmlns:cc="http://creativecommons.org/ns#" xmlns:dc="http://purl.org/dc/elements/1.1/" xmlns:rdf="http://www.w3.org/1999/02/22-rdf-syntax-ns#" xmlns:xlink="http://www.w3.org/1999/xlink">
<metadata>
<rdf:RDF>
<cc:Work rdf:about="">
<dc:format>image/svg+xml</dc:format>
<dc:type rdf:resource="http://purl.org/dc/dcmitype/StillImage"/>
<dc:date>07-AUG-2006</dc:date>
<dc:creator>
<cc:Agent>
<dc:title>Jérôme BLUM (wagner51)</dc:title>
</cc:Agent>
</dc:creator>
<cc:license rdf:resource="http://creativecommons.org/licenses/GPL/2.0/"/>
<dc:coverage/>
<dc:description>Gabarit pour le Projet:Blasons de WIkipédia</dc:description>
<dc:subject>
<rdf:Bag>
<rdf:li>blason suisse modèle gabarit projet blasons</rdf:li>
</rdf:Bag>
</dc:subject>
<dc:language>fr</dc:language>
<dc:title>Gabrit d'un blason suisse</dc:title>
</cc:Work>
<cc:License rdf:about="http://creativecommons.org/licenses/GPL/2.0/">
<cc:permits rdf:resource="http://web.resource.org/cc/Reproduction"/>
<cc:permits rdf:resource="http://web.resource.org/cc/Distribution"/>
<cc:requires rdf:resource="http://web.resource.org/cc/Notice"/>
<cc:permits rdf:resource="http://web.resource.org/cc/DerivativeWorks"/>
<cc:requires rdf:resource="http://web.resource.org/cc/ShareAlike"/>
<cc:requires rdf:resource="http://web.resource.org/cc/SourceCode"/>
</cc:License>
</rdf:RDF>
</metadata>
<defs>
<radialGradient id="a" cx="858.04" cy="579.93" r="300" gradientTransform="matrix(1.215 1.5316e-24 1.4647e-23 1.2667 -839.19 -490.49)" gradientUnits="userSpaceOnUse">
<stop stop-color="#fff" stop-opacity=".31373" offset="0"/>
<stop stop-color="#fff" stop-opacity=".25098" offset=".19"/>
<stop stop-color="#6b6b6b" stop-opacity=".12549" offset=".6"/>
<stop stop-opacity=".12549" offset="1"/>
</radialGradient>
</defs>
<desc>Coat of Arms of Canton of Freiburg (Fribourg)</desc>
<g>
<path d="m1.5 1.5v458.87c0 166.31 134.31 301.13 300 301.13 165.69 0 300-134.82 300-301.13v-458.87h-600z" fill="#e20909"/>
<path d="m1.5 1.5v458.87c0 166.31 134.31 301.13 300 301.13s300-134.82 300-301.13v-458.87h-600z" fill="#fff"/>
<path d="m301.5 563.22c6.876 0 13.072 0.848 18.641 2.379 3.263-3.491 7.397-6.646 10.609-4.848 0 0 6.25-15.5 25.5-38s23.25-25.917 23.25-29.917-0.105-7.971-2.636-10.676l2.636-20.157-34.75-50.25-19.583 19.583s4.484 23.313 24.5 43.333c4.833 4.834 5.595 8.465 3.833 11.667-1.834 3.334 3.167 8.501-3.333 17.167s-16.417 23.5-25.667 36c-1.082 1.462-2.199 2.866-3.342 4.21-18.033 7.915-19.601 14.604-26.179 19.775l4e-3 2e-3c2.103-0.174 4.272-0.268 6.517-0.268z" stroke="#fff" stroke-linecap="round" stroke-linejoin="round" stroke-width="2.75"/>
<path d="m434.25 385.75c-23.581-33.37-60.5-27-105.25-33s-57.5-25.25-60.25-28-1.667-23-0.917-43.917c2.127-59.318-15.833-88.333-15.833-88.333s1.833-5.667 9.333-11.333 10.583-14.833 11.833-23.667-1.25-14.25-4.833-17.833-9.667 0-12.667 8.5-11.542 24.583-11.542 24.583c-4.999-9.625-11.124-11.75-11.124-11.75 0-1.5-1.375-2.5-1.375-2.5s-1.5-12.5 1.188-26.938c5.62-30.193 18.562-18.562 18.562-18.562s-0.969-3.406-1.875-5c-4.62-8.125-11.625-12-21.167 5.25-10.314 18.647-8.083 45.813-8.083 45.813-2.063 0-3.125 1.125-3.125 1.125-1.688-0.375-3.5-0.688-3.5-0.688-1.938-1.938-3.125-1.333-3.125-1.333-11-53.667 18.667-59 18.667-59-39.667-8-34.667 57.667-34.667 57.667-13.833-13.833-3.667-34-3.667-34s-16.5 8-16.5 27.167 13.5 24.834 13.5 25.667c0 1.607-7.552 7.796-16.17 16.996-11.203 11.958-21.958 20.676-25.496 25.336-7.149 9.417 0 17 5.167 17.833s8.667 1.917 11.708 3.542 3.125 3.125-4.458 3.125-11.792 5.792-11.083 6.5c10.879 10.879 20.667 3.667 24.333 2.167s7.5 0 15 0 13-1 13-1c0 38.333-25 90.667-25 131 0 30 22 45 22 45-10 6.333 0 17.667 4.333 33s-1 108-1 128.67-13 31.333-13 31.333c3.833 3.833 15.636 4.881 15.636 4.881h1e-3c5.684 0.231 11.075 1.407 15.952 3.039h1e-3c11.257 0 15.743-20.92 13.743-30.92s5.333-14 5.333-14-3.333-1e-3 -3.333-34c0-41 7.667-65.332 7.667-65.332-3-38 2.417-50.084 4-51.667 2.167-2.167 9.7 16.668 15.033 15.502 2.28-0.498 84.3-14.835 84.3-14.835 21.333 55.667 59.583 70.499 61.5 75.999s7.5 17.667 9.167 19.333 0.333 75.333 0.333 75.333c-12.393 8-18.566 21.685-18.566 21.685 0.294-0.025 0.56-0.039 0.838-0.058 0.074-5e-3 0.148-0.011 0.223-0.016 0.423-0.026 0.828-0.045 1.218-0.058 6.688-0.269 13.782 0.782 20.927 3.958 6.567-10.802 12.593-7.191 12.593-7.191-5.666-9.667 0.102-54.32 0.102-76.986s3.165-27.834 3.165-30.834-10.5-5-10.5-22.75c0-24.25 4.5-17.75 11.5-43 6.918-24.955-11.25-53.25-11.25-53.25 7.625 5.625 10.25 12.25 12.5 18.5s5 9.5 6.5 8 1.75-16-11.5-34.75z" stroke="#fff" stroke-linecap="round" stroke-linejoin="round" stroke-width="2.75"/>
<path d="m199.98 187.93c-4.068-0.435-7.024 2.521-6.59 6.589 0.133 1.247 1.253 2.366 2.5 2.5 1.248 0.134 2.15-0.77 2.017-2.017-0.168-1.578 0.978-2.723 2.555-2.555 1.578 0.169 2.998 1.589 3.167 3.167 0.168 1.578-0.978 2.724-2.556 2.556-1.247-0.134-2.15 0.77-2.017 2.017s1.253 2.366 2.5 2.5c4.068 0.435 7.024-2.521 6.589-6.589-0.434-4.07-4.097-7.733-8.165-8.168z" fill="#fff" stroke="#000" stroke-linecap="round" stroke-linejoin="round"/>
<path d="m246.5 177.33s-0.667 7.5 5 5c0 0 4-4 7.5-14.667s3.416-16.083 2.5-17-4.667 4-7.667 12.833-7.333 13.834-7.333 13.834z" fill="#fff" stroke="#000" stroke-linecap="round" stroke-linejoin="round"/>
<path d="m237.75 217.75s5.334 36.896-37.917 32.563" fill="none" stroke="#fff" stroke-linecap="round" stroke-linejoin="round" stroke-width="2.8"/>
<path d="m185.17 359s12.365-17.948 27.167-24.833c7.167-3.333 12.833-7.833 14.5-11.5" fill="none" stroke="#fff" stroke-linecap="round" stroke-linejoin="round" stroke-width="2.8"/>
<path d="m343 421.75s0.935 6.151 2.5 10.084" fill="none" stroke="#fff" stroke-linecap="round" stroke-linejoin="round" stroke-width="2.8"/>
<path d="m196.83 426.17s6.167 1.667 13.667 2.334" fill="none" stroke="#fff" stroke-linecap="round" stroke-linejoin="round" stroke-width="2.8"/>
<path d="m210.17 412.33s1.667 47.833 1.667 72.167v100.33" fill="none" stroke="#fff" stroke-linecap="round" stroke-linejoin="round" stroke-width="2.8"/>
<path d="m301.5 563.22c-51.057 0-64.927 46.365-58.625 77.25 0 0-44.752-39.077-81.313 3.156-22.214 25.661-17.713 55.854-4.656 80.625 42.887 23.729 92.162 37.25 144.59 37.25s101.71-13.521 144.59-37.25c13.061-24.771 17.562-54.964-4.656-80.625-36.557-42.233-81.312-3.156-81.312-3.156 6.305-30.885-7.571-77.25-58.626-77.25z" fill="#5ab532" stroke="#000" stroke-width="2.75"/>
</g>
<g>
<path d="m1.5 1.5v458.87c0 166.31 134.31 301.13 300 301.13 165.69 0 300-134.82 300-301.13v-458.87h-600z" fill="url(#a)"/>
<path d="m1.5 1.5v458.87c0 166.31 134.31 301.13 300 301.13 165.69 0 300-134.82 300-301.13v-458.87h-600z" fill="none" stroke="#000" stroke-width="3"/>
</g>
</svg>

<?xml version="1.0" encoding="UTF-8" standalone="no"?>
<svg
   xmlns:dc="http://purl.org/dc/elements/1.1/"
   xmlns:cc="http://creativecommons.org/ns#"
   xmlns:rdf="http://www.w3.org/1999/02/22-rdf-syntax-ns#"
   xmlns:svg="http://www.w3.org/2000/svg"
   xmlns="http://www.w3.org/2000/svg"
   xmlns:xlink="http://www.w3.org/1999/xlink"
   xmlns:sodipodi="http://sodipodi.sourceforge.net/DTD/sodipodi-0.dtd"
   xmlns:inkscape="http://www.inkscape.org/namespaces/inkscape"
   height="763"
   width="603"
   version="1.0"
   id="svg20"
   sodipodi:version="0.32"
   inkscape:version="0.46"
   sodipodi:docname="Corippo-coat_of_arms.svg"
   sodipodi:docbase="C:\Documents and Settings\Steve\Bureau\Blason Villages Suisse pour Wikipédia (par Delta-9)"
   inkscape:output_extension="org.inkscape.output.svg.inkscape">
  <metadata
     id="metadata31">
    <rdf:RDF>
      <cc:Work
         rdf:about="">
        <dc:format>image/svg+xml</dc:format>
        <dc:type
           rdf:resource="http://purl.org/dc/dcmitype/StillImage" />
        <dc:date>07-AUG-2006</dc:date>
        <dc:creator>
          <cc:Agent>
            <dc:title>Jérôme BLUM (wagner51)</dc:title>
          </cc:Agent>
        </dc:creator>
        <cc:license
           rdf:resource="http://creativecommons.org/licenses/GPL/2.0/" />
        <dc:coverage />
        <dc:description>Gabarit pour le Projet:Blasons de WIkipédia</dc:description>
        <dc:subject>
          <rdf:Bag>
            <rdf:li>blason suisse modèle gabarit projet blasons</rdf:li>
          </rdf:Bag>
        </dc:subject>
        <dc:language>fr</dc:language>
        <dc:title>Gabrit d'un blason suisse</dc:title>
      </cc:Work>
      <cc:License
         rdf:about="http://creativecommons.org/licenses/GPL/2.0/">
        <cc:permits
           rdf:resource="http://web.resource.org/cc/Reproduction" />
        <cc:permits
           rdf:resource="http://web.resource.org/cc/Distribution" />
        <cc:requires
           rdf:resource="http://web.resource.org/cc/Notice" />
        <cc:permits
           rdf:resource="http://web.resource.org/cc/DerivativeWorks" />
        <cc:requires
           rdf:resource="http://web.resource.org/cc/ShareAlike" />
        <cc:requires
           rdf:resource="http://web.resource.org/cc/SourceCode" />
      </cc:License>
    </rdf:RDF>
  </metadata>
  <defs
     id="defs29"><inkscape:perspective
   sodipodi:type="inkscape:persp3d"
   inkscape:vp_x="0 : 381.5 : 1"
   inkscape:vp_y="0 : 1000 : 0"
   inkscape:vp_z="603 : 381.5 : 1"
   inkscape:persp3d-origin="301.5 : 254.33333 : 1"
   id="perspective28" />
<linearGradient
   id="linearGradient2893">
  <stop
     style="stop-color:#ffffff;stop-opacity:0.3137255;"
     offset="0"
     id="stop2895" />
  <stop
     id="stop2897"
     offset="0.19"
     style="stop-color:#ffffff;stop-opacity:0.25098041;" />
  <stop
     style="stop-color:#6b6b6b;stop-opacity:0.1254902;"
     offset="0.60000002"
     id="stop2901" />
  <stop
     style="stop-color:#000000;stop-opacity:0.1254902;"
     offset="1"
     id="stop2899" />
</linearGradient>
<linearGradient
   id="linearGradient2955">
  <stop
     style="stop-color:white;stop-opacity:0;"
     offset="0"
     id="stop2965" />
  <stop
     style="stop-color:black;stop-opacity:0.64583331;"
     offset="1"
     id="stop2959" />
</linearGradient>
<radialGradient
   inkscape:collect="always"
   xlink:href="#linearGradient2893"
   id="radialGradient3236"
   gradientUnits="userSpaceOnUse"
   gradientTransform="matrix(1.215027,1.531577e-24,1.464684e-23,1.266667,-839.1924,-490.4894)"
   cx="858.04236"
   cy="579.93323"
   fx="858.04236"
   fy="579.93323"
   r="300" />
<inkscape:perspective
   id="perspective2505"
   inkscape:persp3d-origin="306 : 264 : 1"
   inkscape:vp_z="612 : 396 : 1"
   inkscape:vp_y="0 : 1000 : 0"
   inkscape:vp_x="0 : 396 : 1"
   sodipodi:type="inkscape:persp3d" />

	
	

	

		
		
		
		
		
		
		
		
		
	</defs>
  <sodipodi:namedview
     inkscape:window-height="868"
     inkscape:window-width="1207"
     inkscape:pageshadow="2"
     inkscape:pageopacity="0.0"
     guidetolerance="10.0"
     gridtolerance="10.0"
     objecttolerance="10.0"
     borderopacity="1.0"
     bordercolor="#666666"
     pagecolor="#ffffff"
     id="base"
     inkscape:zoom="0.53622251"
     inkscape:cx="343.45195"
     inkscape:cy="327.28951"
     inkscape:window-x="1302"
     inkscape:window-y="81"
     inkscape:current-layer="layer2"
     showgrid="false"
     showguides="true"
     inkscape:guide-bbox="true">
    <sodipodi:guide
       orientation="horizontal"
       position="761.5"
       id="guide1885" />
    <sodipodi:guide
       orientation="vertical"
       position="1.5"
       id="guide1887" />
    <sodipodi:guide
       orientation="horizontal"
       position="1.5"
       id="guide1889" />
    <sodipodi:guide
       orientation="vertical"
       position="601.5"
       id="guide1891" />
    <sodipodi:guide
       orientation="vertical"
       position="301.50081"
       id="guide1893" />
  </sodipodi:namedview>
  <desc
     id="desc22">Coat of Arms of Canton of Freiburg (Fribourg)</desc>
  <g
     inkscape:groupmode="layer"
     id="layer1"
     inkscape:label="Fond écu"
     style="opacity:1"
     sodipodi:insensitive="true">
    <path
       id="path1899"
       d="M 1.5,1.49998 L 1.5,460.3679 C 1.5,626.6785 135.81456,761.5 301.49999,761.5 C 467.18543,761.5 601.5,626.6785 601.5,460.3679 L 601.5,1.49998 L 1.5,1.49998 z"
       style="fill:#e20909;fill-opacity:1" />
    <path
       d="M 1.5,1.5 L 1.5,460.368 C 1.5,626.679 135.814,761.5 301.5,761.5 C 467.186,761.5 601.5,626.679 601.5,460.368 L 601.5,1.5 L 1.5,1.5 z"
       id="path2595"
       style="opacity:1;fill:#ffffff" />
  </g>
  <g
     inkscape:groupmode="layer"
     id="layer2"
     inkscape:label="Meubles"
     style="opacity:1"
     sodipodi:insensitive="true">
    <path
       style="stroke:#ffffff;stroke-width:2.75;stroke-linecap:round;stroke-linejoin:round"
       d="M 301.5,563.219 C 308.376,563.219 314.572,564.067 320.141,565.598 C 323.404,562.107 327.538,558.952 330.75,560.75 C 330.75,560.75 337,545.25 356.25,522.75 C 375.5,500.25 379.5,496.833 379.5,492.833 C 379.5,488.833 379.395,484.862 376.864,482.157 L 379.5,462 L 344.75,411.75 L 325.167,431.333 C 325.167,431.333 329.651,454.646 349.667,474.666 C 354.5,479.5 355.262,483.131 353.5,486.333 C 351.666,489.667 356.667,494.834 350.167,503.5 C 343.667,512.166 333.75,527 324.5,539.5 C 323.418,540.962 322.301,542.366 321.158,543.71 C 303.125,551.625 301.557,558.314 294.979,563.485 L 294.983,563.487 C 297.086,563.313 299.255,563.219 301.5,563.219 z"
       id="path2481" />
    <path
       style="stroke:#ffffff;stroke-width:2.75;stroke-linecap:round;stroke-linejoin:round"
       d="M 434.25,385.75 C 410.669,352.38 373.75,358.75 329,352.75 C 284.25,346.75 271.5,327.5 268.75,324.75 C 266,322 267.083,301.75 267.833,280.833 C 269.96,221.515 252,192.5 252,192.5 C 252,192.5 253.833,186.833 261.333,181.167 C 268.833,175.501 271.916,166.334 273.166,157.5 C 274.416,148.666 271.916,143.25 268.333,139.667 C 264.75,136.084 258.666,139.667 255.666,148.167 C 252.666,156.667 244.124,172.75 244.124,172.75 C 239.125,163.125 233,161 233,161 C 233,159.5 231.625,158.5 231.625,158.5 C 231.625,158.5 230.125,146 232.813,131.562 C 238.433,101.369 251.375,113 251.375,113 C 251.375,113 250.406,109.594 249.5,108 C 244.88,99.874997 237.875,95.999997 228.333,113.25 C 218.019,131.897 220.25,159.063 220.25,159.063 C 218.187,159.063 217.125,160.188 217.125,160.188 C 215.437,159.813 213.625,159.5 213.625,159.5 C 211.687,157.562 210.5,158.167 210.5,158.167 C 199.5,104.5 229.167,99.166997 229.167,99.166997 C 189.5,91.166997 194.5,156.834 194.5,156.834 C 180.667,143.001 190.833,122.834 190.833,122.834 C 190.833,122.834 174.333,130.834 174.333,150.001 C 174.333,169.168 187.833,174.835 187.833,175.668 C 187.833,177.275 180.281,183.464 171.663,192.664 C 160.46,204.622 149.705,213.34 146.167,218 C 139.018,227.417 146.167,235 151.334,235.833 C 156.501,236.666 160.001,237.75 163.042,239.375 C 166.083,241 166.167,242.5 158.584,242.5 C 151.001,242.5 146.792,248.292 147.501,249 C 158.38,259.879 168.168,252.667 171.834,251.167 C 175.5,249.667 179.334,251.167 186.834,251.167 C 194.334,251.167 199.834,250.167 199.834,250.167 C 199.834,288.5 174.834,340.834 174.834,381.167 C 174.834,411.167 196.834,426.167 196.834,426.167 C 186.834,432.5 196.834,443.834 201.167,459.167 C 205.5,474.5 200.167,567.167 200.167,587.834 C 200.167,608.501 187.167,619.167 187.167,619.167 C 191,623 202.803,624.048 202.803,624.048 L 202.804,624.048 C 208.488,624.279 213.879,625.455 218.756,627.087 L 218.757,627.087 C 230.014,627.087 234.5,606.167 232.5,596.167 C 230.5,586.167 237.833,582.167 237.833,582.167 C 237.833,582.167 234.5,582.166 234.5,548.167 C 234.5,507.167 242.167,482.835 242.167,482.835 C 239.167,444.835 244.584,432.751 246.167,431.168 C 248.334,429.001 255.867,447.836 261.2,446.67 C 263.48,446.172 345.5,431.835 345.5,431.835 C 366.833,487.502 405.083,502.334 407,507.834 C 408.917,513.334 414.5,525.501 416.167,527.167 C 417.834,528.833 416.5,602.5 416.5,602.5 C 404.107,610.5 397.934,624.185 397.934,624.185 C 398.228,624.16 398.494,624.146 398.772,624.127 C 398.846,624.122 398.92,624.116 398.995,624.111 C 399.418,624.085 399.823,624.066 400.213,624.053 C 406.901,623.784 413.995,624.835 421.14,628.011 C 427.707,617.209 433.733,620.82 433.733,620.82 C 428.067,611.153 433.835,566.5 433.835,543.834 C 433.835,521.168 437,516 437,513 C 437,510 426.5,508 426.5,490.25 C 426.5,466 431,472.5 438,447.25 C 444.918,422.295 426.75,394 426.75,394 C 434.375,399.625 437,406.25 439.25,412.5 C 441.5,418.75 444.25,422 445.75,420.5 C 447.25,419 447.5,404.5 434.25,385.75 z"
       id="path2483" />
    <path
       style="fill:#ffffff;stroke:#000000;stroke-linecap:round;stroke-linejoin:round"
       d="M 199.984,187.928 C 195.916,187.493 192.96,190.449 193.394,194.517 C 193.527,195.764 194.647,196.883 195.894,197.017 C 197.142,197.151 198.044,196.247 197.911,195 C 197.743,193.422 198.889,192.277 200.466,192.445 C 202.044,192.614 203.464,194.034 203.633,195.612 C 203.801,197.19 202.655,198.336 201.077,198.168 C 199.83,198.034 198.927,198.938 199.06,200.185 C 199.193,201.432 200.313,202.551 201.56,202.685 C 205.628,203.12 208.584,200.164 208.149,196.096 C 207.715,192.026 204.052,188.363 199.984,187.928 z"
       id="path2485" />
    <path
       style="fill:#ffffff;stroke:#000000;stroke-linecap:round;stroke-linejoin:round"
       d="M 246.5,177.333 C 246.5,177.333 245.833,184.833 251.5,182.333 C 251.5,182.333 255.5,178.333 259,167.666 C 262.5,156.999 262.416,151.583 261.5,150.666 C 260.584,149.749 256.833,154.666 253.833,163.499 C 250.833,172.332 246.5,177.333 246.5,177.333 z"
       id="path2487" />
    <path
       style="fill:none;stroke:#ffffff;stroke-width:2.79999995;stroke-linecap:round;stroke-linejoin:round"
       d="M 237.75,217.75 C 237.75,217.75 243.084,254.646 199.833,250.313"
       id="path2489" />
    <path
       style="fill:none;stroke:#ffffff;stroke-width:2.79999995;stroke-linecap:round;stroke-linejoin:round"
       d="M 185.167,359 C 185.167,359 197.532,341.052 212.334,334.167 C 219.501,330.834 225.167,326.334 226.834,322.667"
       id="path2491" />
    <path
       style="fill:none;stroke:#ffffff;stroke-width:2.79999995;stroke-linecap:round;stroke-linejoin:round"
       d="M 343,421.75 C 343,421.75 343.935,427.901 345.5,431.834"
       id="path2493" />
    <path
       style="fill:none;stroke:#ffffff;stroke-width:2.79999995;stroke-linecap:round;stroke-linejoin:round"
       d="M 196.833,426.166 C 196.833,426.166 203,427.833 210.5,428.5"
       id="path2495" />
    <path
       style="fill:none;stroke:#ffffff;stroke-width:2.79999995;stroke-linecap:round;stroke-linejoin:round"
       d="M 210.167,412.333 C 210.167,412.333 211.834,460.166 211.834,484.5 C 211.834,508.834 211.834,578.834 211.834,584.834"
       id="path2497" />
    <path
       d="M 301.5,563.219 C 250.443,563.219 236.573,609.584 242.875,640.469 C 242.875,640.469 198.123,601.392 161.562,643.625 C 139.348,669.286 143.849,699.479 156.906,724.25 C 199.793,747.979 249.068,761.5 301.5,761.5 C 353.932,761.5 403.208,747.979 446.094,724.25 C 459.155,699.479 463.656,669.286 441.438,643.625 C 404.881,601.392 360.126,640.469 360.126,640.469 C 366.431,609.584 352.555,563.219 301.5,563.219 z"
       id="path4760"
       style="fill:#5ab532;stroke:#000000;stroke-width:2.75" />
  </g>
  <g
     inkscape:groupmode="layer"
     id="layer3"
     inkscape:label="Reflet final"
     style="display:inline"
     sodipodi:insensitive="true">
    <path
       style="fill:url(#radialGradient3236);fill-opacity:1"
       d="M 1.5,1.5 L 1.5,460.3679 C 1.5,626.67854 135.81454,761.5 301.49993,761.5 C 467.1854,761.5 601.5,626.67854 601.5,460.3679 L 601.5,1.5 L 1.5,1.5 z "
       id="path2346" />
  </g>
  <g
     inkscape:groupmode="layer"
     id="layer4"
     inkscape:label="Contour final"
     style="display:inline"
     sodipodi:insensitive="true">
    <path
       style="fill:none;fill-opacity:1;stroke:#000000;stroke-width:3;stroke-miterlimit:4;stroke-dasharray:none;stroke-opacity:1"
       d="M 1.5,1.5 L 1.5,460.36794 C 1.5,626.67854 135.81454,761.5 301.49993,761.5 C 467.1854,761.5 601.5,626.67854 601.5,460.36794 L 601.5,1.5 L 1.5,1.5 z "
       id="path3239" />
  </g>
</svg>
